X:1
T:My Heart's in the Highlands
M:3/4
L:1/8
K:C
 G2| c2 c3/2- e/2 d3/2- c/2| A2 A2 c2| G3- c A3/2 G/2| E3 D- C2| D2 E2 c2|\
 G3F-E D| C2 c2 c3/2- e/2| c4 c3/2- d/2| e3/2- d/2 efe-d| c3 B- A2|\
 G3 cA G| E3- DE/2-D/2 C| D2 E2 c2| G3/2- A/2 E3/2- G/2 D3/2- E/2|\
 C2 c2 c3/2- d/2| c4 G2|c-d e2 e-f/2-g/2| e3 de/2-d/2 c| A2 G2 A2|\
 a3- g e2|g-ag-fe-d|e-fe-dc-B| A2 d2 d3/2- f/2| d3- c A2|c-Bc-de-f|\
 g3 a g2|a-gf-ed-c| c3- ed-c| A3G-A c| G3/2- A/2 E3/2- G/2 D3/2- E/2|\
 C2 c2 c3/2- d/2| c4||
